svgs/duotone/bag-shopping.svg

<svg xmlns="http://www.w3.org/2000/svg" viewBox="0 0 448 512"><!--! Font Awesome Pro 6.6.0 by @fontawesome - https://fontawesome.com License - https://fontawesome.com/license (Commercial License) Copyright 2024 Fonticons, Inc. --><path class="fa-secondary" style="fill:var(--fa-secondary-color,inherit);opacity:var(--fa-secondary-opacity,.4);" d="M0 208L0 416c0 53 43 96 96 96l256 0c53 0 96-43 96-96l0-208c0-26.5-21.5-48-48-48l-64 0 0 72c0 13.3-10.7 24-24 24s-24-10.7-24-24l0-72-128 0 0 72c0 13.3-10.7 24-24 24s-24-10.7-24-24l0-72-64 0c-26.5 0-48 21.5-48 48z"/><path class="fa-primary" style="fill:var(--fa-primary-color,inherit);opacity:var(--fa-primary-opacity,1);" d="M224 48c-35.3 0-64 28.7-64 64l0 120c0 13.3-10.7 24-24 24s-24-10.7-24-24l0-120C112 50.1 162.1 0 224 0s112 50.1 112 112l0 120c0 13.3-10.7 24-24 24s-24-10.7-24-24l0-120c0-35.3-28.7-64-64-64z"/></svg>

<svg xmlns="http://www.w3.org/2000/svg" viewBox="0 0 448 512"><!--! Font Awesome Pro 6.4.2 by @fontawesome - https://fontawesome.com License - https://fontawesome.com/license (Commercial License) Copyright 2023 Fonticons, Inc. --><path class="fa-primary" style="fill:var(--fa-primary-color,inherit);opacity:var(--fa-primary-opacity,1);" d="M224 48c-35.3 0-64 28.7-64 64V232c0 13.3-10.7 24-24 24s-24-10.7-24-24V112C112 50.1 162.1 0 224 0s112 50.1 112 112V232c0 13.3-10.7 24-24 24s-24-10.7-24-24V112c0-35.3-28.7-64-64-64z"/><path class="fa-secondary" style="fill:var(--fa-secondary-color,inherit);opacity:var(--fa-secondary-opacity,.4);" d="M288 160H160v72c0 13.3-10.7 24-24 24s-24-10.7-24-24V160H48c-26.5 0-48 21.5-48 48V416c0 53 43 96 96 96H352c53 0 96-43 96-96V208c0-26.5-21.5-48-48-48H336v72c0 13.3-10.7 24-24 24s-24-10.7-24-24V160z"/></svg>
